newicons/china_merchants_bank.svg

<?xml version="1.0" encoding="UTF-8" standalone="no"?>
<svg
   viewBox="0 0 48 48"
   version="1.1"
   id="svg1"
   sodipodi:docname="china_merchants_bank.svg"
   inkscape:version="1.2.2 (b0a8486541, 2022-12-01)"
   xml:space="preserve"
   xmlns:inkscape="http://www.inkscape.org/namespaces/inkscape"
   xmlns:sodipodi="http://sodipodi.sourceforge.net/DTD/sodipodi-0.dtd"
   xmlns="http://www.w3.org/2000/svg"
   xmlns:svg="http://www.w3.org/2000/svg"><sodipodi:namedview
     id="namedview1"
     pagecolor="#505050"
     bordercolor="#eeeeee"
     borderopacity="1"
     inkscape:showpageshadow="0"
     inkscape:pageopacity="0"
     inkscape:pagecheckerboard="0"
     inkscape:deskcolor="#505050"
     inkscape:zoom="12.59534"
     inkscape:cx="15.799495"
     inkscape:cy="21.992261"
     inkscape:window-width="1918"
     inkscape:window-height="1053"
     inkscape:window-x="0"
     inkscape:window-y="0"
     inkscape:window-maximized="1"
     inkscape:current-layer="svg1"
     showgrid="false" /><defs
     id="defs1"><style
       id="style1">.a { fill:none;stroke:#fff;stroke-linecap:round;stroke-linejoin:round; }
</style></defs><path
     style="fill:none;stroke:#ffffff;stroke-width:1;stroke-linecap:round;stroke-linejoin:round;stroke-dashoffset:3.6;stroke-opacity:1"
     d="M 22.063944,32.789117 16.052121,17.99008 10.040297,32.789117 Z"
     id="path2036" /><g
     id="g2064"><path
       style="fill:none;stroke:#ffffff;stroke-width:1;stroke-linecap:round;stroke-linejoin:round;stroke-dashoffset:3.6;stroke-opacity:1"
       d="M 33.88362,32.789117 27.871796,17.99008 21.859973,32.789117 Z"
       id="path2034" /><path
       style="fill:none;stroke:#ffffff;stroke-width:1;stroke-linecap:round;stroke-linejoin:round;stroke-dashoffset:3.6;stroke-opacity:1"
       d="M 11.069249,39.396744 6.5332575,32.81657 17.883452,5.1158682 23.880091,19.914905 29.876729,5.1158682 41.226925,32.81657 36.690932,39.396744 Z"
       id="path2032" /></g><path
     style="fill:none;stroke:#ffffff;stroke-width:1;stroke-linecap:round;stroke-linejoin:round;stroke-dashoffset:3.6;stroke-opacity:1"
     d="M 45.5,24 A 21.500001,21.500001 0 0 1 24,45.5 21.500001,21.500001 0 0 1 2.4999995,24 21.500001,21.500001 0 0 1 24,2.4999996 21.500001,21.500001 0 0 1 45.5,24 Z"
     id="path2030" /><g
     id="g2060"><path
       style="fill:none;stroke:#ffffff;stroke-width:1;stroke-linecap:round;stroke-linejoin:round;stroke-dashoffset:3.6;stroke-opacity:1"
       d="m 35.381319,18.551822 9.414008,-1e-6"
       id="path2028" /><path
       style="fill:none;stroke:#ffffff;stroke-width:1;stroke-linecap:round;stroke-linejoin:round;stroke-dashoffset:3.6;stroke-opacity:1"
       d="m 40.393019,30.784538 3.984499,10e-7"
       id="path2026" /><path
       style="fill:none;stroke:#ffffff;stroke-width:1;stroke-linecap:round;stroke-linejoin:round;stroke-dashoffset:3.6;stroke-opacity:1"
       d="m 36.216943,20.590609 9.010464,-1e-6"
       id="path2024" /><path
       style="fill:none;stroke:#ffffff;stroke-width:1;stroke-linecap:round;stroke-linejoin:round;stroke-dashoffset:3.6;stroke-opacity:1"
       d="m 37.052565,22.629394 h 8.403109"
       id="path2022" /><path
       style="fill:none;stroke:#ffffff;stroke-width:1;stroke-linecap:round;stroke-linejoin:round;stroke-dashoffset:3.6;stroke-opacity:1"
       d="m 37.888189,24.66818 7.579716,1e-6"
       id="path2020" /><path
       style="fill:none;stroke:#ffffff;stroke-width:1;stroke-linecap:round;stroke-linejoin:round;stroke-dashoffset:3.6;stroke-opacity:1"
       d="m 38.723811,26.706966 h 6.583082"
       id="path2018" /><path
       style="fill:none;stroke:#ffffff;stroke-width:1;stroke-linecap:round;stroke-linejoin:round;stroke-dashoffset:3.6;stroke-opacity:1"
       d="m 39.559436,28.745752 h 5.386713"
       id="path1971" /></g></svg>

<?xml version="1.0" encoding="UTF-8"?><svg id="a" xmlns="http://www.w3.org/2000/svg" viewBox="0 0 48 48"><defs><style>.o{fill:none;stroke:#fff;stroke-linecap:round;stroke-linejoin:round;}</style></defs><path id="b" class="o" d="M22.0639,32.7891l-6.0118-14.799-6.0118,14.799h12.0236Z"/><g id="c"><path id="d" class="o" d="M33.8836,32.7891l-6.0118-14.799-6.0118,14.799h12.0236Z"/><path id="e" class="o" d="M11.0692,39.3967l-4.536-6.5802L17.8835,5.1159l5.9966,14.799,5.9966-14.799,11.3502,27.7007-4.536,6.5802H11.0692Z"/></g><path id="f" class="o" d="M45.5,24c0,11.8741-9.6259,21.5-21.5,21.5S2.5,35.8741,2.5,24C2.5,12.1259,12.1259,2.5,24,2.5c11.8741,0,21.5,9.6259,21.5,21.5Z"/><g id="g"><path id="h" class="o" d="M35.3813,18.5518h9.414"/><path id="i" class="o" d="M40.393,30.7845h3.9845"/><path id="j" class="o" d="M36.2169,20.5906h9.0105"/><path id="k" class="o" d="M37.0526,22.6294h8.4031"/><path id="l" class="o" d="M37.8882,24.6682h7.5797"/><path id="m" class="o" d="M38.7238,26.707h6.5831"/><path id="n" class="o" d="M39.5594,28.7458h5.3867"/></g></svg>
